X:1
T:Toccata 
T:Bach     arr. for solo guitar Dempsey   26/7/11
%%score ( 1 2 3 4 )
L:1/8
Q:1/4=30
M:4/4
K:F
V:1 treble-8 nm="Guitar"
V:2 treble-8 
V:3 treble-8 
V:4 treble-8 
V:1
 [Aa] z/4 g/8f/8e/8d/8^c/4 d/ z/ z [A,A] z/4 E/4F/4^C/4 D/ z/ z | %1
 A, z/4 G/8F/8E/8D/8^C/4 D/ z/ z z2 !////![B,EG^ce]!////![EBcg] | %2
 !////![Beg^c']2 !3!d'-[Q:1/4=70] [ad']4 z/ ^C/ | %3
 (3D/E/^C/(3D/E/C/ (3D/E/C/D/E/ (3F/G/E/(3F/G/E/ (3F/G/E/F/G/ | %4
 (3A/B/G/(3A/B/G/ (3A/B/G/ A2 z2 z/ ^c/ | %5
 (3d/e/^c/(3d/e/c/ (3d/e/c/d/e/ (3f/g/e/(3f/g/e/ (3f/g/e/f/g/ | %6
 (3a/b/g/(3a/b/g/ (3a/b/g/ a2 z/ z2 a/ | %7
 (3g/b/e/(3g/b/e/ (3f/a/d/(3f/a/d/ (3e/g/c/(3e/g/c/ (3d/f/B/(3d/f/B/ | %8
 (3c/e/A/(3c/e/A/ (3B/d/G/(3B/d/G/ (3A/c/F/(3A/c/F/ (3G/B/E/(3G/B/E/ | %9
 (3F/A/D/(3F/A/D/ (3E/G/^C/(3E/G/C/ z2 !////![G^ceb]2- | %10
 [Gceb-]2 b/4a/4g/4f/4e/4d/4^c/4=B/4 c/A/c/e/4g/4 f>e | %11
 [FAdf]2 z3/2[Q:1/4=50] A/ d/e/f/d/ e/f/g/e/ | f/g/a/f/ g/a/b/g/ a/f/g/e/ f/d/e/^c/ | %13
 d/A/B/G/ A/F/G/E/ F/D/G/E/ F/D/E/^C/ | !0!D/A,/B,/G,/ A,/F,/G,/E,/ F,/D,/G,/E,/ F,/D,/E,/^C/ | %15
 [D,D]d/4f/4b/4f/4 c/4e/4a/4e/4B/4d/4g/4d/4 A/4^c/4e/4a/4D/[dfb]/ C/[=cea]/B,/[Bdg]/ | %16
 [A,EA^ca]d/4f/4b/4f/4 =c/4e/4a/4e/4B/4d/4g/4d/4 A/4^c/4e/4a/4D/[dfb]/ C/[=cea]/B,/[Bdg]/ | %17
 [A,EA^ca-]2 a/4g/4f/4e/4d/4c/4=B/4c/4 A/4B/4c/4d/4e/4f/4g/4a/4 g/4f/4e/4f/4D/4F/4A/4c/4 | %18
 d/4A/4=B/4^c/4d/4e/4f/8g/8a/4b z/ [fb]/ z/ [ea]/ z/ [dg]/ [cea]d/4f/4b/4f/4 | %19
 c/4e/4a/4e/4B/4d/4g/4d/4 A/4^c/4e/4a/4 z/ [fb]/ z/ [ea]/ z/ [dg]/ [cea][F=B] | %20
 [EG^c]>=B A/c/e/4g/4_b/ a/4g/4f/4e/4f/4e/4d/4c/4 d/4=c/4_B/4A/4G/4F/4E/4D/4 | %21
"_Ad lib. strum, rasguado etc............................" [GB^c-e]4 (3[Gc]/e/c/(3[EB]/c/B/ (3[Gc]/e/c/(3[EB]/c/B/ | %22
 (3[E^c]/e/c/(3[^CB]/c/B/ (3[Ec]/e/c/(3[CB]/c/B/ (3[CG]/B/G/(3[EB]/G/B/ (3[CG]/B/G/(3[EB]/G/B/ | %23
 (3[E^c]/[ce]/[Ec]/(3[ce]/[Ec]/[ce]/ (3[Ec]/[ce]/[Ec]/(3[ce]/[Ec]/[ce]/ [G,Acea]2 [F,Fda]2 | %24
 [DBdg]2 z2 [^ceg]2 z2 | z2 z3/2 [eg^c']/ [dad'][Adf]!0![de]^c | %26
 [Ad]4 z/[Q:1/4=80] !1!a/g/a/ f/a/e/a/ | d/a/^c/a/ d/a/e/a/ f/a/A/a/ !0!=B/a/c/a/ | %28
 x4 z/"^CX.........................................." d'/c'/d'/ b/d'/a/d'/ | %29
 !1!g/d'/!1!^f/d'/ g/d'/!1!a/d'/"^CX............................................................................................" b/d'/d/d'/ g/d'/f/d'/ | %30
 g/d'/^f/d'/ g/d'/a/d'/ bd'bd' | !4!_e'!1!ge'g c'ac'a | !4!d'fd'f bgbg | ^c'ec'e !4!a!3!faf | %34
 g_dgd f=dfd | eBeB z/ !1!a/g/a/ f/a/e/a/ | d/a/^c/a/ d/a/e/a/ f/a/A/a/ =B/a/c/a/ | %37
 d/a/^c/a/ d/a/e/a/ f/a/e/a/ d/a/=c/a/ | B/a/c/a/ d/g/B/g/ e/g/d/g/ c/g/B/g/ | %39
 A/g/B/g/ c/f/A/f/ d/f/c/f/ B/f/A/f/ | G/f/A/f/ B/e/G/e/ ^c/e/B/e/ A/e/G/e/ | %41
 F/e/G/e/ A/d/F/d/ E/e/E/e/ F/d/F/d/ | B/^c/B/c/ A/d/F/d/ E/e/E/e/ F/d/F/d/ | %43
[Q:1/4=78] z/"^decel............."!>(! d/^c/d/ =B/"^dim."d/c/B/[Q:1/4=76] c/A/=G/A/ E/G/F/E/!>)! | %44
[Q:1/4=75] !4!a/f/!0!e/f/ c/f/e/f/ a/f/e/f/ c/f/e/f/ | g/e/d/e/ c/e/d/e/ g/e/d/e/ c/e/d/e/ | %46
 a/f/e/f/ c/f/e/f/ a/f/e/f/ c/f/e/f/ | g/e/d/e/ c/e/d/e/ g/e/d/e/ c/e/d/e/ | %48
 f/g/f/e/ d/c/=B/A/ B/G/B/d/ f/a/f/d/ | =B/G/B/d/ f/a/f/d/ _B/G/B/d/ e/g/e/c/ | %50
 B/G/B/d/ e/g/e/c/ A/F/A/c/ d/f/d/B/ | A/F/A/c/ d/f/d/B/ G/E/G/B/ ^c/e/c/B/ | %52
[Q:1/4=72] G/E/G/B/ ^c/e/c/B,/ z/[Q:1/4=70] !1!a/g/a/ f/a/e/a/ | %53
 d/a/^c/a/ d/a/e/a/ f/a/A/a/ =B/a/^c/a/ | d/a/^c/a/ [df][ce] d=cBA | %55
 [Gb]/a/g/f/ e/d/^c/=B/ c/A/c/e/ g/b/g/e/ | ^c/A/c/e/ g/b/g/e/ d/A/d/!1!f/ !1!a/!1!d'/!1!a/!1!f/ | %57
 d/A/d/!1!f/ !1!a/!1!d'/!1!a/!1!f/ e/^c/e/g/ b/^c'/b/g/ | %58
 e/^c/e/g/ b/^c'/b/g/ f/d/f/a/ d'/f'/d'/a/ | f/d/f/a/ d'/f'/d'/a/ g/e/g/b/ ^c'/e'/c'/b/ | %60
 g/e/g/b/ ^c'/e'/c'/b/ a/f/a/c'/ d'/f'/d'/a/ | %61
 b/"^Rit.       Leisurely  ad lib next 10 bars"d'/b/g/ f/a/f/d/ A/d/A/F/ D/d/^c/=B/ | %62
 ^c/b/a/g/ f/g/f/e/ d/b/a/g/ f/g/f/e/ | %63
[Q:1/4=50] [Dd]/E/4F/4G/4A/4=B/4^c/4 d/f/e/d/ [A,a]/=B,/4^C/4D/4E/4F/4G/4 A/[Ge]/[Fd]/[E^c]/ | %64
 d/_e/4d/4c/4B/4A/4G/4 ^F[Q:1/4=55][DA] AGc=B |[Q:1/4=60] _ede=B cBcd | _edef z/ g/f/g/ _e/g/d/g/ | %67
 c/g/=B/g/ c/g/d/g/ _e/g/G/g/ A/g/=B/g/ | c/g/=B/g/ c/g/d/g/ z/ g/f/g/ [G_e]d | %69
 c/f/_e/f/ dc B/e/d/e/ cB | A/d/c/d/ BA G/B/A/B/ c/B/A/G/ | %71
"^Gradually pick up tempo.""^Accel....................................."[Q:1/4=60] ^F/D/[CA]/D/ [B,d]/D/[A,c]/D/[Q:1/4=65] [G,B]/D/[^F,d]/D/ [G,B]/D/[A,A]/D/ | %72
[Q:1/4=70] [B,G]/d/^F/d/ [EG]/d/[FA]/d/ [G,B]/d/[^F,A]/D/ [G,B]/D/[A,c]/D/ | %73
 [=Fd]/c/B/A/ G/A/B/c/ A2 z c | d/B/G/D/ G/B/d/g/ _e/f/d/e/ c/B/A/G/ | %75
 ^F/D/F/G/ A/d/A/G/ F/D/F/G/ A/d/A/F/ | G/D/G/A/ B/d/B/A/ G/D/G/A/ B/d/c/B/ | %77
 A/^F/A/B/ c/_e/c/B/ A/F/A/B/ c/e/c/B/ | A/B/d/^f/ g/b/g/d/ B/G/B/d/ g/b/g/d/ | %79
 c/A/c/_e/ ^f/a/f/e/ c/A/c/e/ f/a/f/e/ | [^Fd]/ z/ z [Gd][=Fc] B2 c[=Bd] | _e2 f[Bg] a2 [Bf][ce] | %82
 [DGd]/_e/d/[_Ec]/ [DB]/c/[DB]/[CA]/ G/c/[DB]/[CA]/ G/[ca]/g/[A^f]/ | %83
 [Bg]/f/=e/d/ [E^c]e [A,F]/[=B,G]/[^CA]/[D=B]/ [E^c]/[Fd]/[Ge]/[Af]/ | %84
 [_Bg][Af]/[Ge]/ [Fd]/A/[E^c]/A/ [Dd]/A/[^Ce]/A/ [Df]/A,/[Eg]/A,/ | %85
"^Decel.............................................................." [Fa]/A,/[A^c]/A,/ [=Bd]/A,/[ce]/A,/ [df]/A,/[ce]/A,/ [df]/A,/[Bd]/A,/ | %86
[Q:1/4=40] [^ce][Ad][GBd][EAc] [FAd][Adf][Bde][A=c] | %87
[Q:1/4=55] [FBd]4 z/4 f/4g/4a/4b/4A/4B/4c/4 d/4c/4d/4_e/4f/4F/4G/4A/4 | %88
 B/4A/4B/4c/4d/4A/4G/4F/4 _E/4G/4A/4B/4c/4G/4F/4E/4 D/4F/4G/4A/4B/4A/4B/4c/4 d/4c/4d/4_e/4f/4F/4G/4A/4 | %89
 B/4A/4B/4c/4d/4c/4B/4A/4 G/4B/4c/4d/4_e/4d/4c/4B/4 A/4c/4d/4=e/4^f/4_e/4d/4c/4 B/4f/4g/4a/4b/4c'/4d'/4g/4 | %90
 !////![GB-e-]4 [Be]2 [FAd]2 | [F^Gd]4 z4 | z3 [B,^Gd] [Ec]4 | %93
 [EGc]4 z/4 g/4f/4g/4e/4e/4d/4e/4 c/4a/4g/4a/4f/4f/4e/4f/4 | %94
 d/4=b/4a/4b/4g/4g/4f/4g/4 e/4c'/4b/4c'/4!-(!{/g}!-)!a/4d'/4c'/4d'/4!-(!{/a} !-)!b/4e'/4d'/4e'/4!-(!{/=b}!-)!c'/4f'/4e'/4f'/4 d'/4g'/4f'/4g'/4e'/4c'/4b/4c'/4 | %95
 a/4d'/4c'/4d'/4=b/4^g/4^f/4g/4 e/4c'/4b/4c'/4a/4=f/4e/4f/4 d/4b/4a/4b/4c/4a/4=g/4a/4 =B/4^g/4^f/4g/4e/4c/4B/4A/4 | %96
 ^G/4d/4c/4=B/4A/4e/4d/4c/4 B/4f/4e/4d/4c/4=g/4f/4e/4 d/4a/4g/4f/4e/4g/4a/4=b/4[Q:1/4=50] c'[ceg] | %97
"^CIX..............................." !1!!2!!3![Gea^c']G/4!4!^c/4e/4a/4 c'[Geac'] !1!!4![Ffad']F/4!0!D/4f/4a/4 d'[Ffad'] | %98
"^CVII......................................    CV............................................................................................" [Fdg=b]F/4=B/4d/4g/4 b[Fdgb] !2!!1!!4![Ecgc']E/4G/4c/4g/4 c'[Ecgc'] | %99
 [EAcfa]F/4A/4c/4f/4 a[Ecfa] !1!!4!!3![Ddf_b]D/4!0!D/4d/4f/4 b[Ddfb] | %100
 [^CGeb]C/4G/4!0!G/4e/4 b[CGeb] [=C^Fcda]C/4F/4c/4d/4 a[^Fcda] | %101
 [GB-d-a]2 [Bdg-]2 [B^cg]2 [Ad=f]2 | [Ade]2 [A=ce]2 !2!!4!!3![Fcd]2 [GB]2 | !arpeggio![D,FAd]8 |] %104
V:2
 x8 | x4 D,4- | D,4 x4 | x8 | x8 | x8 | x8 | x8 | x8 | x8 | x8 | x8 | x8 | x8 | x8 | x8 | x8 | x8 | %18
 x8 | x8 | x8 | x8 | x8 | x8 | x8 | x8 | x8 | x8 | x8 | x8 | x8 | x8 | x8 | x8 | x8 | x8 | x8 | %37
 x8 | x8 | x8 | x8 | x8 | x8 | x8 | x8 | x8 | x8 | x8 | x8 | x8 | x8 | x8 | x8 | x8 | x8 | x8 | %56
 x8 | x8 | x8 | x8 | x8 | x8 | x8 | x8 | x8 | x8 | x8 | x8 | x8 | x8 | x8 | x8 | x8 | x8 | x8 | %75
 x8 | x8 | x8 | x8 | x8 | x8 | x8 | x8 | x2 z/ A/G/A/ x4 | x8 | x8 | x8 | x8 | x8 | x8 | x8 | x8 | %92
 x8 | x8 | x8 | x8 | x8 | x8 | x8 | x8 | x8 | x8 | x8 | x8 |] %104
V:3
 x8 | x8 | x2 !4!!2![dga-]/!1!e/ ^f4 z | x8 | x8 | x8 | x8 | x8 | x8 | x4 D,4 | x8 | %11
 D,2 z2 z/4 A/A/A/A/A/A/A/A/4 | z/4 A/A/A/A/A/A/A/A/A/A/A/A/A/A/A/A/4 | %13
 z/4 A,/A,/A,/A,/A,/A,/A,/A,/A,/A,/A,/A,/A,/A,/A,/A,/4 | %14
 z/4 !0!A,/!0!A,/A,/A,/A,/A,/A,/A,/A,/A,/A,/A,/A,/A,/A,/A,/4 | x8 | x8 | x8 | z2 z D CB,A, z | %19
 z3 D CB,A,[^G,D] | A,2 x6 | x8 | x8 | x8 | B,3 A,/G,/ A,>E, F/D/E/^C/ | %25
 D/=B,/^C/A,/ _B,/^G,/A,/A/ FD A,2 | D,4 x4 | x8 | d/a/^c/a/ d/a/e/a/ f^fgf | !1!B!1!AB!1!c d^fga | %30
 bab z z/ !0!G!0!GGG/ | !3!c/!1!_e/c/e/ c/e/c/e/ c/f/c/f/ c/f/c/f/ | %32
 !3!B/!2!d/B/d/ B/d/B/d/ B/e/B/e/ B/e/B/e/ | A,/A/A,/A/ A,/A/A,/A/ !1!F,/!0!D/F,/D/ F,/D/F,/D/ | %34
 E,/B/E,/B/ E,/B/E,/B/ D,/A/D,/A/ D,/A/D,/A/ | E,/G/E,/G/ E,/G/E,/G/ A2 x2 | FEF^C DCDE | %37
 FEF^C D2 F2 | D2 z2 C2 z2 | C2 z2 A,2 D2 | B,2 z2 A,2 ^C2 | [D,A,]2 z2 [B,^c][B,c][D,A,][D,A,] | %42
 [G,E]3 A, [B,^c][B,c][D,A,][D,A,] | [E^G]2 x6 | !1!F z !1!C z F z C z | E z C z E z C z | %46
 F z C z F z C z | E z C z E z C z | D x7 | x8 | x8 | x8 | x4 A,^cdG | FA,=B,^C DCDE | %54
 AG z/ A,/G/A,^F/c/F/ x/ D/A/D/ | x8 | x8 | x8 | x8 | x8 | x8 | x8 | x8 | x8 | %64
 F x3 _B,=B,[_EG][DG] | C/G/=B,/G/ C/G/D/G/ _E/G/G,/G/ A,/G/=B,/G/ | C/G/=B,/G/ C/G/D/G/ _EDC=B, | %67
 CD_EF G=B,CD | _EDEF [EG]=B,CD | _EC[_B,F]E DG,[A,E][B,D] | C[D^F]G,D _EB,A,C | D,8 | D,8 | %73
 B,2 C2 F,/C/A,/F,/ A,/C/_E/C/ | B,2 x B, c/d/B/c/ A/G/^F/=E/ | [D,A,]2 z2 D,2 z2 | D,2 z2 D,2 z2 | %77
 D,2 z2 D,2 z2 | D,2 z2 D,2 z2 | D,2 z2 D,2 z2 | z/ D/C/D/ B,/D/A,/D/ G,/G/=F/G/ _E/G/D/G/ | %81
 c/c/B/c/ A/c/E/c/ f/f/_e/f/ D/F/C/F/ | B,F F,2 B,2 DD | x8 | D,8 | x8 | A,F,G,A, F,D,GA, | %87
 B,4 z4 | x8 | x8 | ^C4 F3 D | =B,4 z/ ^G/=B/F/ G/D/F/=B,/ | D/^G,/A, E,6- | E,4 x4 | x8 | x8 | %96
 x8 | x8 | x8 | x8 | x8 | G,2 B,2 E,2 F,2 | A,4 !1!B,2 G,2 | A,8 |] %104
V:4
 x8 | x8 | x8 | x8 | x8 | x8 | x8 | x8 | x8 | x8 | x8 | x8 | x8 | x8 | x8 | x8 | x8 | x8 | x8 | %19
 x8 | x8 | x8 | x8 | x8 | x8 | x6 A>G | GF/E/ F2 x4 | x8 | x8 | x8 | x8 | x8 | x8 | x8 | x8 | x8 | %36
 x8 | x8 | x8 | x8 | x8 | x8 | x8 | x8 | x8 | x8 | x8 | x8 | x8 | x8 | x8 | x8 | x8 | x8 | x8 | %55
 x8 | x8 | x8 | x8 | x8 | x8 | x8 | x8 | x8 | x8 | x8 | x8 | x8 | x8 | x8 | x8 | x8 | x8 | x8 | %74
 x8 | x8 | x8 | x8 | x8 | x8 | x8 | x8 | x8 | x8 | x8 | x8 | x8 | x8 | x8 | x8 | x8 | x8 | %92
 x4 A3 =G/F/ | x8 | x8 | x8 | x8 | x8 | x8 | x8 | x8 | x8 | x8 | x8 |] %104

